img/checkbox-off.svg

<svg width="20" height="20" fill="none" xmlns="http://www.w3.org/2000/svg"><path d="M17.3913 1.73913c.2306 0 .4518.09161.6149.25469.1631.16308.2547.38425.2547.61488v14.7826c0 .2306-.0916.4518-.2547.6149-.1631.1631-.3843.2547-.6149.2547H2.6087c-.23063 0-.4518-.0916-.61488-.2547-.16308-.1631-.25469-.3843-.25469-.6149V2.6087c0-.23063.09161-.4518.25469-.61488.16308-.16308.38425-.25469.61488-.25469h14.7826zm0-1.73913H2.6087C1.91683 0 1.25329.274844.764069.764069.274844 1.25329 0 1.91683 0 2.6087v14.7826c0 .6919.274844 1.3554.764069 1.8446C1.25329 19.7252 1.91683 20 2.6087 20h14.7826c.6919 0 1.3554-.2748 1.8446-.7641.4893-.4892.7641-1.1527.7641-1.8446V2.6087c0-.69187-.2748-1.35541-.7641-1.844631C18.7467.274844 18.0832 0 17.3913 0z" fill="#fff"/></svg>

<svg width="20" height="20" viewBox="0 0 20 20" fill="none" xmlns="http://www.w3.org/2000/svg">
<path d="M17.3913 1.73913C17.6219 1.73913 17.8431 1.83074 18.0062 1.99382C18.1693 2.1569 18.2609 2.37807 18.2609 2.6087V17.3913C18.2609 17.6219 18.1693 17.8431 18.0062 18.0062C17.8431 18.1693 17.6219 18.2609 17.3913 18.2609H2.6087C2.37807 18.2609 2.1569 18.1693 1.99382 18.0062C1.83074 17.8431 1.73913 17.6219 1.73913 17.3913V2.6087C1.73913 2.37807 1.83074 2.1569 1.99382 1.99382C2.1569 1.83074 2.37807 1.73913 2.6087 1.73913H17.3913ZM17.3913 0H2.6087C1.91683 0 1.25329 0.274844 0.764069 0.764069C0.274844 1.25329 0 1.91683 0 2.6087L0 17.3913C0 18.0832 0.274844 18.7467 0.764069 19.2359C1.25329 19.7252 1.91683 20 2.6087 20H17.3913C18.0832 20 18.7467 19.7252 19.2359 19.2359C19.7252 18.7467 20 18.0832 20 17.3913V2.6087C20 1.91683 19.7252 1.25329 19.2359 0.764069C18.7467 0.274844 18.0832 0 17.3913 0V0Z" fill="white"/>
</svg>
